!!!!SEGMENT: pl-wumfc--r252--003_paderewski-ignacy-jan--trois-morceaux-op-3-valse-melancolique.krn
!!!cenid: 18xx:3143
!!!COM: Paderewski, Ignacy Jan
!!!COM-rismID: pe30029943
!!!CDT: 1860/11/18-1941/06/29
!!!CNT: Polish
!!!GTL: Trois morceaux op. 3
!!!OTL: Valse mélancolique
!!!PDT:
!!!AGN:
!!!SMS-siglum: PL-Wumfc
!!!SMS-shelfmark: R252
!!!SMS-shelfwork: 003 G
!!!SMS-variant:
!!!SMS-altvar:
!!!NIFC-rismSourceID: 1001155978
!!!NIFC-islandoraID: pl-wumfc:213
!!!URL-pdf-islandora: https://repozytorium.nifc.pl/islandora/object/pl-wumfc%3A213/datastream/PDF/view
!!!URL-scan: https://polish.musicsources.pl/pl/lokalizacje/galeria/rekopisy/4672 @EN{Scan on Polish Music Sources Website} @PL{Skany w portalu Dziedzictwo Muzyki Polskiej w otwartym dostępie}
!!!ONB-nifc:
!!!OMD: Allegro grazioso
!!!AIN: 1 piano
!!!key: A
**kern	**kern	**dynam
*part1	*part1	*part1
*staff2	*staff1	*
*I"Fortepian	*I"Fortepian	*
*Ipiano	*Ipiano	*
*ICklav	*ICklav	*
*clefF4	*clefG2	*
*k[f#c#g#]	*k[f#c#g#]	*
*A:	*A:	*
*M3/4	*M3/4	*
=1	=1	=1
!LO:TX:b:i:t=una corda	!	!
(4AA/	2.r	p
2E~\)	.	.
=2	=2	=2
(4AA/	2.r	.
2E~\)	.	.
=3	=3	=3
*^	*	*
*	*^	*	*
!LO:TX:b:i:t=due pedale	!	!	!	!
4r	2.AA\	4ryy	4r	.
2A/ 2c#	.	(<4F#\	([2cc#^\	p
.	.	4E\)	.	.
=4	=4	=4	=4	=4
4r	2AA\	4ryy	4cc#\]	<
2G#/ 2d	.	(<4Fn\	8b\L	.
.	.	.	8cc#\J	[
.	4ryy	4E\)	4dd\)	.
=5	=5	=5	=5	=5
4r	2AA\	4ryy	8r	.
.	.	.	(8cc#\L	<
2A/ 2c#	.	(<4F#\	8dd\	.
.	.	.	8ee\	.
.	4ryy	4E\)	8ff#\	.
.	.	.	8cc#\J	[[
=6	=6	=6	=6	=6
4r	2.BB\	4ryy	2gg#\)	.
2G#/ 2d	.	(4F#\	.	.
.	.	4E\)	[4gg#\	.
!!LO:LB:g=original
=7	=7	=7	=7	=7
!	!	!	!	!LO:HP:t=cresc&colon;
4r	2.C#\	4ryy	8gg#'\L]	<
.	.	.	(8gg#\	.
2A/ 2c#	.	(<4F#\	8bb\	.
.	.	.	8aa\	.
.	.	4E\)	8ee\	.
.	.	.	8cc#\J	.
*	*v	*v	*	*
=8	=8	=8	=8
4r	2GG#\	4ee\)	>
2E/ 2B	.	([2b\	]
.	4GGn\	.	.
=9	=9	=9	=9
4r	2FF#\	8b\L]	<
.	.	8cc#\	.
2E/ 2A	.	8ee\	.
.	.	8dd\	.
!	!	!LO:TX:b:i:t=riten	!
.	4FFn\	8b\	[
.	.	8a\J	.
=10	=10	=10	=10
*	*^	*	*
4r	2.EE\	4ryy	(2.b#X\	>]
(4f#/	.	2G#\ 2d	.	.
4e/)	.	.	.	.
=11	=11	=11	=11	=11
4r	2.AA\	4ryy	4cc#\))	.
2A/ 2c#	.	(<4F#\	([2cc#\	.
.	.	4E\)	.	.
!!LO:LB:g=original
=12	=12	=12	=12	=12
4r	4ryy	2.AA\	4cc#\]	.
2Gn/ 2d	(4F#\	.	8b\L	.
.	.	.	8cc#\J	.
.	4E\)	.	4dd\)	<
=13	=13	=13	=13	=13
4r	2.AA\	4ryy	8r	.
.	.	.	(8cc#\L	.
2A/ 2c#	.	(<4F#\	8dd\	.
.	.	.	8ee\	.
.	.	4E\)	8ff#\	.
.	.	.	8cc#\J	[[
=14	=14	=14	=14	=14
!	!	!	!	!LO:HP:t=cresc&colon;
4r	2.GG#\	4ryy	2.gg#\	<
(4e/	.	2F#\ 2B#X	.	.
4d#X/)	.	.	.	.
=15	=15	=15	=15	=15
4r	2C#\	4ryy	4ee\)	.
2c#/ 2e	.	(<4A\	([2ee\	<
.	4ryy	4G#\)	.	.
*	*v	*v	*	*
=16	=16	=16	=16
4r	4ryy	4ee\]	.
2B/ 2f#	(4A\	8dd#X\L	[
.	.	8ee\J	.
.	4G#\)	4ff#\)	.
!!LO:LB:g=original
=17	=17	=17	=17
*	*^	*	*
4rA	4ryy	2C#\	8r	<
.	.	.	(8dd#X\L	.
2c#/ 2e	4G#\	.	8ee\	.
.	.	.	8ff#\	.
.	4C#\	4ryy	8gg#\	.
.	.	.	8dd#\J	[[
*	*v	*v	*	*
=18	=18	=18	=18
*ped	*	*	*
!	!	!	!LO:HP:t=cresc&colon;
4r	2.FF#\	[2.aa#X\	<
4cc#>\	.	.	.
*Xped	*	*	*
4A#X\ 4e 4gn	.	.	.
=19	=19	=19	=19
4r	2.BB\	8aa#\L]	.
.	.	8bb\	.
(4B\ 4e 4g#	.	8gg#\	.
.	.	8dd#X\	.
4cc#\	.	8ee\	.
.	.	8ff#\J)	.
*v	*v	*	*
=20	=20	=20
4b\	(8gg#\L	.
.	8ee\	.
4B\) 4e 4g#	8b\	.
.	8g#\	.
[4FF#/	8a\	.
.	8ccn\J	.
=21	=21	=21
4FF#/]	8cccn\)	.
.	8r	.
4cn\ 4e 4a	4r	.
(4BB/	((4A/ 4d	.
=22	=22	=22
4EE/)	4G#/)) 4e	.
4r	4r	.
4r	4r	.
!!LO:LB:g=original
=||23	=||23	=||23
4r	4r	.
[<2BB\ [>2F# [>2B	[<2d/ [>2f# [>2dd	sf
=24	=24	=24
!	!LO:TX:b:i:t=marcato	!
4BB\] 4F#] 4B]	4d/] 4f#] 4dd]	.
4BB/	4d/ 4f# 4dd	.
4BB/	4d/ 4a 4cc#	.
=25	=25	=25
.	8qa/ 8qcc#	.
2.E\	4d/ 4g# 4b	.
.	4d/ 4f# 4a	.
!	!LO:TX:a:i:t=con sentimento	!
.	4d/ 4g# 4b	.
=26	=26	=26
*^	*	*
(4d/	2.AA\ 2.E	2.e/	.
4c#/	.	.	.
4B/	.	.	.
=27	=27	=27	=27
4A/)	4r	4r	.
[<2FF#/ [>2C# [>2F#	2ryy	(>[<2A/ [>2c# [>2a	sf
*v	*v	*	*
=28	=28	=28
4FF#/] 4C#] 4F#]	4A/] 4c#] 4a]	.
4FF#/	4A/ 4c# 4a	p
4FF#/	4A/ 4e 4g#	.
!!LO:LB:g=original
=29	=29	=29
.	8qe/ 8qg#	.
2.BB/	4A/ 4d 4f#	.
.	4A/ 4c# 4e	.
!	!LO:TX:a:i:t=con sentimento	!
.	4A/ 4d 4f#	.
=30	=30	=30
*^	*^	*
(>4BB/ 4E	N[<2EE\	4B/	4c#\	.
4G#/	.	2e/)	2ryy	.
4Gn/)	4ryy	.	.	.
*	*	*v	*v	*
=31	=31	=31	=31
2.F#/	4EE\N]	(>[>2.f#/	<[
.	4DD\	.	.
.	4CC#\	.	.
=32	=32	=32	=32
4r	2DD\	8f#/L]	<
.	.	8g#/	.
4F#/ 4B	.	8a/	.
.	.	8a#X/	.
4B/ 4f#	4ryy	8b/	.
.	.	8dd/J	[[
=33	=33	=33	=33
8r	2.D\	2ff#^\	<
8G#/L	.	.	.
8A/	.	.	.
8A#X/	.	.	.
8B/	.	[>4ee/	[[
8g#/J	.	.	.
=34	=34	=34	=34
!LO:TX:t=P:problem=mixed beam	!	!	!
(8b>\L	2.C#\	4ee/]	>
8a>\	.	.	.
8e>\	.	2aa/)	.
!	!	!	!LO:HP:a:t=dim
8c#>\	.	.	] >
8A/	.	.	.
8E/J	.	.	.
!!LO:PB:g=original
=35	=35	=35	=35
4E/)	2FF#\	(>2.a/	< [[
4F#/	.	.	.
4G#/	4ryy	.	.
=36	=36	=36	=36
4r	2DD#X\	8A/L	mf
.	.	8c#/	.
4F#/ 4A	.	8d#X/	.
!	!	!	!LO:HP:t=cresc&colon;
.	.	8e/	<
4A/ 4c#	4ryy	8e#X/	.
.	.	8f#/J	.
=37	=37	=37	=37
8r	2.GG#\	2a/	.
(>8D#X/L	.	.	.
8F##X/	.	.	.
8G#/	.	.	.
8B#X/	.	4g#/	.
8d#X/J)	.	.	.
=38	=38	=38	=38
*	*	*	*^
(>8e/L	2.C#\	4g#/)	.	.
!	!	!	!LO:HP:b=2	!
8d#X/	.	.	>	.
8c#/	.	[2cc#\	.	.
8G#/	.	.	.	.
!	!	!	!	!LO:HP:t=dim
8E/	.	.	.	>
8D#X/J)	.	.	]	.
*v	*v	*	*v	*v
=39	=39	=39
[2.C#/	4cc#\]	.
.	[2cc#\	p
!!LO:LB:g=original
=40	=40	=40
4C#/]	4cc#\]	.
[2c#\	[2cc#\	<
=41	=41	=41
*	*^	*
4c#\]	4cc#\]	2ryy	.
*ped	*	*	*
!	!	!	!LO:DY:a
4d\	([2dd/	.	[ sf
4BB\ 4F# 4B	.	[<4d\ [>4f#	.
*	*v	*v	*
=42	=42	=42
(>8BBB/L	4d/] 4f#] 4dd]	.
8FF#/	.	.
8BB/	4d/ 4f# 4dd	.
8F#/J	.	.
*Xped	*	*
4B\)	4d/ 4a 4cc#	.
=43	=43	=43
.	8qa/ 8qcc#	.
2.E\	4d/ 4g# 4b	.
.	4d/ 4f# 4a	.
.	4d/ 4g# 4b	.
=44	=44	=44
*^	*	*
4d/	2AA\	4e/)	<
4c#/	.	4f#/	.
4B/	4GG#\	[4g#/	[[
=45	=45	=45	=45
*	*	*^	*
2A/	2FF#\	4g#/]	2ryy	.
.	.	[2a/	.	.
*ped	*	*	*	*
4FF#/ 4C# 4F#	4ryy	.	[<4A^\ [>4c#	.
*v	*v	*	*	*
*	*v	*v	*
!!LO:LB:g=original
=46	=46	=46
(8FFF#/L	4A/] 4c#] 4a]	.
8CC#/	.	.
8FF#/	(>4A^>/ 4c# 4a	.
8C#/J	.	.
4F#\)	4A/) 4e 4g#	.
=47	=47	=47
.	8qe/ 8qg#	.
2.BB/	(>4A/ 4d#X 4f#	.
.	4A/ 4c# 4e	.
.	4A/ 4d# 4f#	.
=48	=48	=48
*^	*^	*
4G#/	2.EE\	4g#/	2dn\	.
4F#/	.	4a/	.	>
4Fn/	.	4b/)	4ryy	]
*	*	*v	*v	*
=49	=49	=49	=49
*	*^	*	*
4E/	2.AA\	4ryy	4r	.
2A/ 2c#	.	(<4F#\	2cc#\	p
.	.	4E\)	.	.
=50	=50	=50	=50	=50
4rA	4ryy	2.AA\	4cc#\	<
(4fn/	2G#\ 2d	.	8b\L	.
.	.	.	8cc#\J	.
4e/)	.	.	4dd\	[[
!!LO:LB:g=original
=51	=51	=51	=51	=51
4rA	4ryy	2.AA\	8r	.
.	.	.	(8cc#\L	.
2A/ 2c#	(4F#\	.	8dd\	.
.	.	.	8ee\	.
.	4E\)	.	8ff#\	.
.	.	.	8cc#\J	.
=52	=52	=52	=52	=52
4rA	4ryy	2.BB\	2gg#^\)	.
(4f#/	2G#\ 2d	.	.	.
4e/)	.	.	[4gg#\	.
=53	=53	=53	=53	=53
!	!	!	!	!LO:HP:t=cresc&colon;
4rA	4ryy	2.C#\	(8gg#\L]	<
.	.	.	8gg#\	.
2A/ 2c#	4F#\	.	8bb\	.
.	.	.	8aa\	.
.	4E\	.	8ee\	.
.	.	.	8cc#\J	.
*	*v	*v	*	*
=54	=54	=54	=54
4r	2GG#\	4ee\)	.
2B/ 2e	.	([2b\	<
.	4GGn\	.	.
=55	=55	=55	=55
4r	2FF#\	8b\L]	.
.	.	8cc#\	[
2E/ 2A	.	8ee\	>
.	.	8dd\	.
.	4FFn\	8b\	.
.	.	8a\J)	]]
=56	=56	=56	=56
*	*^	*	*
4r	4ryy	2.EE\	(2.b#X\	.
(4f#/	2G#\ 2d	.	.	.
4e/)	.	.	.	.
!!LO:LB:g=original
=57	=57	=57	=57	=57
4rA	4ryy	2.AA\	4cc#\)	.
2A/ 2c#	(4F#\	.	([2cc#\	<
.	4E\)	.	.	.
=58	=58	=58	=58	=58
4rA	4ryy	2.AA\	4cc#\]	.
(4fn/	2G#\ 2d	.	8b\L	[
.	.	.	8cc#\J	.
4e/)	.	.	4dd\)	.
=59	=59	=59	=59	=59
4rA	4ryy	2.AA#X\	8r	.
!	!	!	!LO:TX:a:i:t=poco a poco cresc&colon; e string.	!
.	.	.	(8cc#\L	.
2c#/ 2e	(>4Gn\	.	8dd\	.
.	.	.	8ee\	.
.	4F#\)	.	8ff#\	.
.	.	.	8cc#\J	.
=60	=60	=60	=60	=60
4rA	4ryy	2.BB\	2.dd\)	.
(4e/	2B\ 2dn	.	.	.
4f#/)	.	.	.	.
=61	=61	=61	=61	=61
4rA	2BB\	4ryy	4r	.
!	!	!	!	!LO:HP:t=cresc&colon;
2B/ 2d	.	(<4G#\	([2ff#\	<
.	4ryy	4F#\)	.	.
=62	=62	=62	=62	=62
4rA	4ryy	2.C#\	4ff#\]	.
(4a/	2B\ 2c#	.	8ee#X\L	.
.	.	.	8ff#\J)	.
4g#X/)	.	.	[4gg#\	.
*	*v	*v	*	*
!!LO:LB:g=original
=63	=63	=63	=63
4r	2.FF#\	8gg#\L]	<
.	.	8ee#X\	.
4A/ 4c# 4f#	.	8ff#\	.
.	.	8gg#\	.
4c#/ 4f# 4a	.	8aa\	.
.	.	8bb\J	[[
=64	=64	=64	=64
4r	2.FFn\	2.cccn/	f
[<4e>\ [>4a> 4dd>	.	.	.
4e>\] 4a>] 4ee-X>	.	.	.
=65	=65	=65	=65
4r	[2.EE\	(>4.ccc#X/	.
!	!	!	!LO:DY:rj
4e>\ 4a> 4cc#>	.	.	f
.	.	8aa/L	.
4d#X>\ 4a> 4cc#>	.	8gg#/	.
.	.	8ff#/J	.
=66	=66	=66	=66
4E/	2.EE\]	8ee/L	>
.	.	8cc#/	.
4c#/ 4e	.	8b/	.
.	.	8a/	.
4D#X/	.	8g#/	.
.	.	8a/J)	]]
=67	=67	=67	=67
4r	2BB\	4ffn;\	.
4B/ 4d 4f#	.	4r	.
4EE\	4ryy	((4d/ 4g#	p
*v	*v	*	*
=68	=68	=68
4AA/	4c#/)) 4a	.
4r	4r	.
4r	4r	.
!!LO:PB:g=original
=69||	=69||	=69||
*ok[fncngnb-]	*ok[fncngnb-]	*
*k[b-]	*k[b-]	*
*^	*	*
*	*^	*	*
4r	4ryy	2.FF\	4r	.
!	!	!	!LO:TX:a:i:t=mantando	!
2A^/	4r	.	([2cc\	p
.	4C/	.	.	.
*v	*v	*v	*	*
=70	=70	=70
4r	4cc\]	.
4D/ 4c	8b-\L	.
.	8a\J	.
4E/ 4B-	4g\)	.
=71	=71	=71
*^	*	*
*	*^	*	*
4r	2FF\	4ryy	(2cc\	.
4A/	.	2F\	.	<
[4d/	4ryy	.	4f/	.
=72	=72	=72	=72	=72
4d/]	4C\	2.FF\	2g/	.
4c/	2E\	.	.	.
4B-/	.	.	4g#X/	[[
*	*v	*v	*	*
=73	=73	=73	=73
(4F/ 4A	(4FF\	4a/)	.
4G/	8F\L	([2cc\	.
.	8E\J	.	.
4A/	4E-X\	.	.
=74	=74	=74	=74
4A/)	4D\	4cc\]	.
4e-X>\	4C\	4f#X/	pp >
4d>\	4BB-\)	4g/)	]]
*v	*v	*	*
!!LO:LB:g=original
=75	=75	=75
*	*^	*
(<4AA/	(4a/	4c#X\	>
4D\	4f/	2d\	.
4GG/	4b-/	.	]]
=76	=76	=76	=76
2.C/)	2.g/	4e\	.
.	.	4d\	.
.	.	4c\)	.
*	*v	*v	*
=77	=77	=77
*^	*	*
*	*^	*	*
4r	2FF\	4ryy	(4a/	.
2A^/	.	4r	2cc\	.
.	4C/	4ryy	.	.
=78	=78	=78	=78	=78
4r	2.GG\	4ryy	4cc\	.
2c^/	.	4r	8b-/L	.
.	.	.	8a/J	.
.	.	4E/	4g/)	.
=79	=79	=79	=79	=79
4r	2.AA\	4ryy	(2cc\	.
(4c/	.	2F\	.	.
!	!	!	!LO:TX:b:i:t=mari&colon;	!
4c#X/)	.	.	4f/	.
=80	=80	=80	=80	=80
!	!	!	!LO:TX:a:i:t=ariel	!
4r	2.BB-\	4ryy	2.a/)	.
4c#X/	.	2F\	.	.
4d/	.	.	.	.
!!LO:LB:g=original
=81	=81	=81	=81	=81
!	!	!	!	!LO:HP:t=cresc&colon;
4r	2.BBn\	4ryy	4g/	<
!	!	!	!	!LO:DY:a
(4d/	.	2G\	[2ff\	sf
4a/)	.	.	.	.
=82	=82	=82	=82	=82
4r	2.C\	4ryy	4ff\]	.
(4g/	.	2G\	8ee\L	.
.	.	.	8dd\J	.
4e/)	.	.	4cc\	.
=83	=83	=83	=83	=83
4rA	4ryy	(<2.D\	2gg\	ff
2f/	(4A\	.	.	.
.	4G\)	.	4bn\	.
*	*v	*v	*	*
=84	=84	=84	=84
*	*	*^	*
4r	2.E\	2.cc/	4r	.
2G/	.	.	4c\	.
.	.	.	4b-\	.
*	*	*v	*v	*
=85	=85	=85	=85
4r	2F#X\)	(4dd\	p
4c/ 4a	.	[2dd\	.
N(>4d\	4ryy	.	.
*v	*v	*	*
=86	=86	=86
*	*^	*
2.G\	8dd/L]	8d\LN)	.
.	8a/	8g\	pp
.	8b-/	8d\	>
.	8f#X/	8c\	.
.	8g/	8B-\	.
.	8a/J	8A\J	]]
*	*v	*v	*
!!LO:LB:g=original
=87	=87	=87
*^	*	*
4G/	2.D-X\	4b-/)	.
!	!	!LO:TX:a:i:t=rit	!LO:DY:a
4f/	.	(>[>2b-/	sf
4G/	.	.	.
*v	*v	*	*
=88	=88	=88
*	*^	*
2.C\	8b-/L]	8g\L	.
.	8f#X/	8c\	.
.	8g/	8B-\	.
.	8d/	8A\	.
.	8e/	8G\	.
.	8g/J)	8E\J	.
*	*v	*v	*
=89	=89	=89
*^	*	*
!	!	!LO:TX:a:i:t=Tempo 1.	!
4A/	[2.FF\	4r	.
4C/	.	([2cc\	<
4C#X/	.	.	.
=90	=90	=90	=90
4D/	2FF\]	4cc\]	.
4D#X/	.	8b-/L	.
.	.	8a/J	.
4E/	4ryy	4g/)	[
=91	=91	=91	=91
8E-X/L	[2.FF\	(2cc\	.
8G/	.	.	.
8A/	.	.	.
8e-X/	.	.	.
8d/	.	4f/	.
8c/J	.	.	.
=92	=92	=92	=92
*	*	*^	*
4B-/	4FF\]	2g/	4f\	.
4r	4C\	.	4e\	.
4r	4BB-\	4g#X/)	4d\	.
*	*	*v	*v	*
!!LO:LB:g=original
=93	=93	=93	=93
*	*^	*	*
(4c#X/	2AA\	4r	(>4a/	.
4D/ 4Bn	.	2ryy	[>2a/	.
4E/ 4c#X	4ryy	.	.	.
*	*v	*v	*	*
=94	=94	=94	=94
4F/ 4d	2.DD\	4a/]	.
4A/ 4d	.	8f/L	.
.	.	8e/J	.
4F/) 4A	.	4d/)	.
=95	=95	=95	=95
!	!	!LO:TX:b:i:t=rall	!
(8B-/L	2GG\	(4.g/	p
8D/	.	.	.
8G/	.	.	.
8B-/	.	8d/	.
8A/	4CC\	4e/	.
8G/J	.	.	.
=96	=96	=96	=96
!	!	!LO:N:vis=2.	!
2A/)	2FF\	2f;/)	.
4r	4ryy	4r	.
*v	*v	*	*
=97	=97	=97
4r	4r	.
[<2D\ [>2A [>2d	(>[<2f\ [>2a [>2ff	sf
=98	=98	=98
4D\] 4A] 4d]	4f\] 4a] 4ff]	.
4D\	4f\ 4a 4ff	p
4D\	4f\ 4cc 4ee	.
!!LO:LB:g=original
=99	=99	=99
.	8qcc/ 8qee	.
2.G\	4f/ 4bn 4dd	.
.	4f/ 4a 4cc	.
.	4f/) 4b 4dd	.
=100	=100	=100
*	*^	*
2.C/	2g/	(4f\	.
.	.	4e\	.
.	4ryy	4d\	.
=101	=101	=101	=101
4r	4r	4c\)	.
[<2AA\ [>2E [>2A	(>2c/ 2e [>2cc	2ryy	sf
*	*v	*v	*
=102	=102	=102
*	*	*^
4AA\] 4E] 4A]	4c/ 4e 4cc]	>	.
4AA/	4c/ 4e 4cc	.	.
!LO:TX:a:t=rall	!	!	!
4GG/	4c/ 4e 4bn	.	.
=103	=103	=103	=103
.	8qb-/	.	.
!	!	!	!LO:HP:a:t=dim
4FF#X/	4c/ 4e 4a	.	>
2BBn/	4Bn/ [>4d#X 4g#X	]	.
.	4A/ 4d#] 4a	.	.
*	*	*v	*v
=104	=104	=104
2EE/	(>4A/) 4d 4b-	.
.	2G;/) 2d 2e	.
4E;\	.	.
!!LO:PB:g=original
=105||	=105||	=105||
*k[f#c#g#]	*k[f#c#g#]	*
*^	*	*
*	*^	*	*
!	!	!	!LO:TX:a:i:t=Tempo 1.	!
4r	2AA\	4ryy	4r	.
!	!	!	!LO:TX:b:i:t=marcato i due canti	!
([2c#/	.	4rEE	([2ee^\	.
.	4ryy	4E\	.	.
=106	=106	=106	=106	=106
4c#/]	4r	2.AA\	4ee\]	.
8B/L	2Fn\	.	8dd\L	.
8c#/J	.	.	8cc#\J	.
4d/)	.	.	4b\)	.
=107	=107	=107	=107	=107
8r	8ryy	2AA\	(2ee\	.
(8c#/L	[8E\	.	.	.
8d/	2E\]	.	.	.
8e/	.	.	.	.
8f#/	.	4ryy	4a/	.
8c#/J)	.	.	.	.
=108	=108	=108	=108	=108
[2.g#/	4rG	2E\	2b\	.
.	2d\	.	.	.
.	.	4EE\	4b#X\)	.
=109	=109	=109	=109	=109
8g#/L]	4rG	2AA\	(4cc#\	.
8g#/	.	.	.	<
8b/	4c#\	.	[2ee\	.
8a/	.	.	.	.
8e/	4rG	4C#\	.	.
8c#/J	.	.	.	[[
=110	=110	=110	=110	=110
4e/	4rA	2GG#\	4ee\]	.
(>2B/	(>2E\	.	(4a#X/)	.
.	.	4GGn\	4b/	.
*	*v	*v	*	*
!!LO:LB:g=original
=111	=111	=111	=111
8B/L)	2FF#\	4cc#\	.
8c#/	.	.	.
8e/	.	4a/	.
8d/	.	.	.
8B/	4FFn\	4dd\	>
8A/J	.	.	.
=112	=112	=112	=112
(2.B#X/)	2.EE\	4g#/	.
.	.	4f#/	.
.	.	4e/	]]
=113	=113	=113	=113
*	*^	*	*
4c#/)	4r	2.AA\	4e/)	.
[2c#/	4r	.	([2ee^\	.
.	4E/	.	.	.
=114	=114	=114	=114	=114
4c#/]	4r	2.AA\	4ee\]	.
!	!	!	!	!LO:HP:t=cresc&colon;:b=2
8B/L	2Fn\	.	8dd\L	<
8c#/J	.	.	8cc#\J	.
4d/	.	.	4b\)	.
=115	=115	=115	=115	=115
8r	8E\	2GGn\	(2ee^\	.
8c#/L	2ryy	.	.	.
8d/	.	.	.	.
8e/	.	.	.	.
8f#/	.	4FF#\	4a#X/	.
8c#/J	8ryy	.	.	.
*	*v	*v	*	*
=116	=116	=116	=116
4d/	2.BB\	2b\	.
2f#/	.	.	.
.	.	4cc#\)	.
!!LO:LB:g=original
=117	=117	=117	=117
*	*^	*	*
4r	4r	2.AA\	4dd\	.
!	!	!	!	!LO:HP:t=poco cresc.
[2d/	4r	.	([2ff#\	<
.	4F#\	.	.	.
=118	=118	=118	=118	=118
4d/]	4r	2.GG#\	4ff#\]	.
(8d/L	2F#\	.	8ff#\L	.
8e/J	.	.	8ee\J	.
4f#/)	.	.	4dd\)	.
*	*v	*v	*	*
=119	=119	=119	=119
*	*	*^	*
*ped	*	*	*	*
(4E#X/	2.CC#\	2bb/	8r	<
.	.	.	(>8g#\L	.
!LO:TX:b:i:t=marcato	!	!	!	!
4c#/	.	.	8a\	.
.	.	.	8b\	.
*Xped	*	*	*	*
4B/)	.	4ee#X/	8cc#\	.
.	.	.	8g#\J)	.
=120	=120	=120	=120	=120
*ped	*	*	*	*
8r	2DD\	(4ff#/	2.f#\	[
(8A#X/L	.	.	.	.
8B/	.	4dd/	.	.
8c#/	.	.	.	.
8d/	4ryy	4b/	.	.
8F#/J)	.	.	.	.
=121	=121	=121	=121	=121
8r	2.BB\	4dd/	4f#\	.
(8F#/L	.	.	.	.
8G#X/	.	4cc#/	4e\	.
8A#X/	.	.	.	.
8B/	.	4b/)	4d\	.
8F#/J)	.	.	.	.
=122	=122	=122	=122	=122
2.B/	8r	(2b/	2.d\	.
.	(>8AA#X\L	.	.	.
.	8BB\	.	.	.
.	8C#\	.	.	.
.	8D\	4a/	.	.
.	8FFn\J)	.	.	.
*v	*v	*	*	*
!!LO:LB:g=original
=123	=123	=123	=123
*ped	*	*	*
(8EE/L	2a/	2.B\ 2.d	f
8BB/	.	.	.
8D/	.	.	.
8Fn/J	.	.	.
!LO:TX:t=P:problem=cross-measure beam	!	!	!
8E\L	4g#/)	.	.
8G#\	.	.	.
=124	=124	=124	=124
8B\	4ryy	4ryy	.
*Xped	*	*	*
8d\J)	.	.	.
4r	(8d#X/L	4r	.
.	8e/J	.	.
4r	4r	8g#\L	<
.	.	8a\J	.
=125	=125	=125	=125
2.r	8a#X/L	4r	.
.	8b/J	.	.
.	4r	8cc#\L	.
.	.	8dd\J	.
.	8dd#X/L	4r	.
.	8ee/J	.	[[
=126	=126	=126	=126
2.r	2.rc	8ffn/L	>
.	.	8aa#X/	.
.	.	8bb/	.
.	.	8ccc#/	.
.	.	8ddd/	.
.	.	8ff/J)	]]
=127	=127	=127	=127
2.r	(2bb/	8r	.
.	.	8a#X\L	.
!	!	!	!LO:HP:t=dim
.	.	8b\	>
.	.	8cc#\	.
.	4aa/	8dd\	.
.	.	8fn\J	.
=128	=128	=128	=128
2e\	2gg#/	8r	.
!	!LO:TX:b:i:t=rall	!	!
.	.	8g#\L	.
.	.	8a\	.
.	.	8a#X\	.
4d\	4ff#/	8b\	.
.	.	8d\J	.
!!LO:LB:g=original
=129	=129	=129	=129
8r	2ee/	4g#\	.
8A#X\L	.	.	.
8B\	.	[2e\	.
8c#\	.	.	.
8d\	4dd/	.	.
8F#\J	.	.	.
=130	=130	=130	=130
*^	*	*	*
*	*^	*	*	*
4E/	4ryy	2.AA\	4cc#/	4e\]	.
!LO:TX:b:i:t=marcato il canto	!	!	!LO:TX:b:i:t=a tempo	!	!
!	!	!	!LO:TX:a:i:t=piano sempre	!	!
[2c#/	4r	.	[>2eeTT/)	2ryy	.
.	4E/	.	.	.	.
*	*	*	*v	*v	*
=131	=131	=131	=131	=131
4c#/]	2.AA\	4ryy	2.eeTTT/_>	.
8B/L	.	2Fn\ 2G#	.	.
8c#/J	.	.	.	.
4d/	.	.	.	.
=132	=132	=132	=132	=132
8r	8r	2.AA\	2.eeTTT/_>	.
(>8c#/L	[>8E\	.	.	.
8d/	2E\]	.	.	.
8e/	.	.	.	.
8f#/	.	.	.	.
8c#/J	.	.	.	.
=133	=133	=133	=133	=133
2.g#/)	4ryy	4r	2.eeTTT/]	.
.	2AA\	4E/	.	.
.	.	4B\ 4d	.	.
*v	*v	*v	*	*
.	16qqdd#X/LL	.
.	16qqee/JJ	.
=134	=134	=134
*^	*^	*
4E:/ 4c#: 4a:	2.AA:\	[2.aaTT/	4ryy	.
4r	.	.	[2a\	.
4c#/ 4e	.	.	.	.
!!LO:LB:g=original
=135	=135	=135	=135	=135
4Fn/	2.AA\	2.aaTT/_	4a\]	.
2d/ 2fn	.	.	(>8g#\L	.
.	.	.	8a\J	.
.	.	.	4b\)	.
=136	=136	=136	=136	=136
!LO:TX:b:t=Ped	!	!	!	!
8r	[2.AA\ [2.E	2.aaTTT/_	8r	.
[<8c#/ [>8e	.	.	(>8g#\L	.
2c#/_> 2e_>	.	.	8a\	p
.	.	.	8b\	.
.	.	.	8cc#\	.
.	.	.	8a\J)	.
=137	=137	=137	=137	=137
2.c#/_> 2.e_>	2.AA\_ 2.E_	2.aaTTT/]	2.ee\	.
=138	=138	=138	=138	=138
!	!	!LO:TX:b:i:t=veloce	!	!
2.c#/_> 2.e_>	2.AA\_ 2.E_	2.aaTTT/	2.ee\	pp
.	.	(32qqgg#/LLL	.	.
.	.	32qqaa/	.	.
.	.	32qqbb/	.	.
.	.	32qqccc#/	.	.
.	.	32qqddd/	.	.
.	.	32qqeee/	.	.
.	.	32qqfff#/	.	.
.	.	32qqggg#/	.	.
.	.	32qqaaa/	.	.
.	.	32qqbbb/JJJ	.	.
=139	=139	=139	=139	=139
4c#/] 4e]	4AA\] 4E]	4cccc#/)	4ee\	.
4r	2ryy	4r	2ryy	.
4r	.	4r	.	.
*v	*v	*	*	*
*	*v	*v	*
=140	=140	=140
4AAA;<\	2.r	.
4r	.	.
4r	.	.
==	==	==
*-	*-	*-
!!!system-decoration: {(s1,s2)}
!!!RDF**kern: < = below
!!!RDF**kern: > = above
!!!RDF**kern: N = linked
!!!ENC: Filip Voros
!!!END: 2021-11-05
!!!ENC: Marta Chmielewska
!!!END: 2021-11-09
